X:230
T:Toss the Feathers
S:Transcribed by and from Alan Ng
N:An example setting for slow fiddle with cuts but no rolls. Slurs on same pitch require a cut! * marks a pitch slide.
Z: id:ng-reels-46 transcribed by Alan Ng alan@alan-ng.net 9 Feb 2002
M:C|
K:EDor
E:11
vEuB-BvB-{e}duB-BvB|uEvB-BuB-FAFvA-|BuE-EvA-B2-Buc-|dfed-dBAF:|*
E:12
|:uBeevd-e2udve-|"*"fedve-{a}fee2|vfebe vfebue-|{a}fedve-feve2|\
uBeevd-e2ude|ufeudve-fua-af|ub2vbu(f a2a)vf|u((3efgf)ve udBAF|]*
